dist/intermediate-svg/warehouse-add.svg

<?xml version="1.0" encoding="utf-8"?><svg width="12" height="13" fill="none" xmlns="http://www.w3.org/2000/svg" viewBox="0 0 12 13"><g filter="url(#fsfilter0_add)"><path d="M12 4.90909V7.09091C12 7.41818 11.7818 7.63636 11.4545 7.63636H7.63636V11.4545C7.63636 11.7818 7.41818 12 7.09091 12H4.90909C4.58182 12 4.36364 11.7818 4.36364 11.4545V7.63636H0.545455C0.218182 7.63636 0 7.41818 0 7.09091V4.90909C0 4.58182 0.218182 4.36364 0.545455 4.36364H4.36364V0.545455C4.36364 0.218182 4.58182 0 4.90909 0H7.09091C7.41818 0 7.63636 0.218182 7.63636 0.545455V4.36364H11.4545C11.7818 4.36364 12 4.58182 12 4.90909Z" fill="#fff"/></g><defs><filter id="fsfilter0_add" x="0" y="0" width="12" height="13" filterUnits="userSpaceOnUse" color-interpolation-filters="sRGB"><feFlood flood-opacity="0" result="BackgroundImageFix"/><feColorMatrix in="SourceAlpha" values="0 0 0 0 0 0 0 0 0 0 0 0 0 0 0 0 0 0 127 0" result="hardAlpha"/><feOffset dy="1"/><feColorMatrix values="0 0 0 0 0 0 0 0 0 0 0 0 0 0 0 0 0 0 0.2 0"/><feBlend in2="BackgroundImageFix" result="effect1_dropShadow"/><feBlend in="SourceGraphic" in2="effect1_dropShadow" result="shape"/></filter></defs></svg>

<?xml version="1.0" encoding="utf-8"?><svg width="12" height="13" fill="none" xmlns="http://www.w3.org/2000/svg" viewBox="0 0 12 13"><g filter="url(#gxfilter0_add)"><path d="M12 4.91v2.18c0 .328-.218.546-.546.546H7.636v3.818c0 .328-.218.546-.545.546H4.909c-.327 0-.545-.218-.545-.546V7.636H.545C.218 7.636 0 7.418 0 7.091V4.909c0-.327.218-.545.545-.545h3.819V.545c0-.327.218-.545.545-.545h2.182c.327 0 .545.218.545.545v3.819h3.818c.328 0 .546.218.546.545z" fill="#fff"/></g><defs><filter id="gxfilter0_add" x="0" y="0" width="12" height="13" filterUnits="userSpaceOnUse" color-interpolation-filters="sRGB"><feFlood flood-opacity="0" result="BackgroundImageFix"/><feColorMatrix in="SourceAlpha" values="0 0 0 0 0 0 0 0 0 0 0 0 0 0 0 0 0 0 127 0" result="hardAlpha"/><feOffset dy="1"/><feColorMatrix values="0 0 0 0 0 0 0 0 0 0 0 0 0 0 0 0 0 0 0.2 0"/><feBlend in2="BackgroundImageFix" result="effect1_dropShadow"/><feBlend in="SourceGraphic" in2="effect1_dropShadow" result="shape"/></filter></defs></svg>
